_site/images/features/management-screens.svg

<svg height="531" viewBox="0 0 553 531" width="553" xmlns="http://www.w3.org/2000/svg" xmlns:xlink="http://www.w3.org/1999/xlink"><defs><path id="a" d="m12 0h269c6.627417 0 12 5.372583 12 12v421c0 6.627417-5.372583 12-12 12h-269c-6.627417 0-12-5.372583-12-12v-421c0-6.627417 5.372583-12 12-12z"/><filter id="b" height="137.1%" width="156.3%" x="-28.2%" y="-10.4%"><feOffset dx="0" dy="36" in="SourceAlpha" result="shadowOffsetOuter1"/><feGaussianBlur in="shadowOffsetOuter1" result="shadowBlurOuter1" stdDeviation="21.5"/><feColorMatrix in="shadowBlurOuter1" type="matrix" values="0 0 0 0 0   0 0 0 0 0   0 0 0 0 0  0 0 0 0.201115263 0"/></filter><rect id="c" height="255" rx="12" width="268"/><filter id="d" height="180.4%" width="162.3%" x="-31.2%" y="-33.9%"><feOffset dx="0" dy="36" in="SourceAlpha" result="shadowOffsetOuter1"/><feGaussianBlur in="shadowOffsetOuter1" result="shadowBlurOuter1" stdDeviation="21.5"/><feColorMatrix in="shadowBlurOuter1" result="shadowMatrixOuter1" type="matrix" values="0 0 0 0 0   0 0 0 0 0   0 0 0 0 0  0 0 0 0.201115263 0"/><feOffset dx="0" dy="-3" in="SourceAlpha" result="shadowOffsetOuter2"/><feGaussianBlur in="shadowOffsetOuter2" result="shadowBlurOuter2" stdDeviation="22"/><feColorMatrix in="shadowBlurOuter2" result="shadowMatrixOuter2" type="matrix" values="0 0 0 0 0   0 0 0 0 0   0 0 0 0 0  0 0 0 0.0313632246 0"/><feMerge><feMergeNode in="shadowMatrixOuter1"/><feMergeNode in="shadowMatrixOuter2"/></feMerge></filter><linearGradient id="e" x1="7.6875%" x2="100%" y1="-12.152344%" y2="116.397135%"><stop offset="0" stop-color="#3baca5"/><stop offset="1" stop-color="#075655"/></linearGradient></defs><g fill="none" fill-rule="evenodd"><g transform="translate(43 7)"><use fill="#000" filter="url(#b)" xlink:href="#a"/><use fill="#fff" fill-rule="evenodd" xlink:href="#a"/></g><g transform="translate(73 84)"><path d="m4 0h44c2.209139 0 4 1.790861 4 4v44c0 2.209139-1.790861 4-4 4h-44c-2.209139 0-4-1.790861-4-4v-44c0-2.209139 1.790861-4 4-4z" fill="#0b7a76"/><g fill="#e1e8ee"><rect height="8" rx="4" width="166.341797" x="64"/><path d="m68 18h125c2.209139 0 4 1.790861 4 4 0 2.209139-1.790861 4-4 4h-125c-2.209139 0-4-1.790861-4-4 0-2.209139 1.790861-4 4-4z"/></g></g><g transform="translate(73 166)"><path d="m4 0h44c2.209139 0 4 1.790861 4 4v44c0 2.209139-1.790861 4-4 4h-44c-2.209139 0-4-1.790861-4-4v-44c0-2.209139 1.790861-4 4-4z" fill="#6c9cdb"/><g fill="#e1e8ee"><rect height="8" rx="4" width="166.341797" x="64"/><rect height="8" rx="4" width="111" x="64" y="18"/></g></g><g transform="translate(73 250)"><path d="m4 0h44c2.209139 0 4 1.790861 4 4v44c0 2.209139-1.790861 4-4 4h-44c-2.209139 0-4-1.790861-4-4v-44c0-2.209139 1.790861-4 4-4z" fill="#ff647c"/><g fill="#e1e8ee"><rect height="8" rx="4" width="166.341797" x="64"/><path d="m68 18h75c2.209139 0 4 1.790861 4 4 0 2.209139-1.790861 4-4 4h-75c-2.209139 0-4-1.790861-4-4 0-2.209139 1.790861-4 4-4z"/></g></g><g transform="translate(241 138)"><use fill="#000" filter="url(#d)" xlink:href="#c"/><use fill="#fff" fill-rule="evenodd" xlink:href="#c"/><g fill="#e1e8ee"><path d="m96.5 40h134.5c2.209139 0 4 1.790861 4 4 0 2.209139-1.790861 4-4 4h-134.5c-2.209139 0-4-1.790861-4-4 0-2.209139 1.790861-4 4-4z"/><path d="m96.5 58h77.089928c2.209139 0 4 1.790861 4 4 0 2.209139-1.790861 4-4 4h-77.089928c-2.209139 0-4-1.790861-4-4 0-2.209139 1.790861-4 4-4z"/><path d="m40 98h191c2.209139 0 4 1.790861 4 4 0 2.209139-1.790861 4-4 4h-191c-2.209139 0-4-1.790861-4-4 0-2.209139 1.790861-4 4-4z"/><rect height="8" rx="4" width="199" x="36" y="116"/><path d="m40 134h167c2.209139 0 4 1.790861 4 4 0 2.209139-1.790861 4-4 4h-167c-2.209139 0-4-1.790861-4-4 0-2.209139 1.790861-4 4-4z"/><path d="m67 189h51c1.104569 0 2 .895431 2 2 0 1.104569-.895431 2-2 2h-51c-1.1045695 0-2-.895431-2-2 0-1.104569.8954305-2 2-2z" opacity=".570482"/><path d="m66.5 198h38c.828427 0 1.5.671573 1.5 1.5 0 .828427-.671573 1.5-1.5 1.5h-38c-.8284271 0-1.5-.671573-1.5-1.5 0-.828427.6715729-1.5 1.5-1.5z" opacity=".570482"/></g><rect fill="url(#e)" height="41" rx="6" width="41" x="36" y="40"/><path d="m40.4322142 204.686593c1.8267967.244937 4.5867561.357171 6.5674329.357171 1.9806767 0 4.741342-.112234 6.5674328-.357171-.1475272-2.048441-1.0933957-3.140425-3.0811312-3.6063h-.0007058c-1.2677461-.297878-2.0971457-1.244452-2.3357304-2.666079l-.0719989-.427052.3494066-.256937c.83787-.618344 1.4046852-1.720916 1.516213-2.949134.1207041-1.326333-.2724666-2.627255-1.0510434-3.479242-.3705828-.405877-.9995147-.890105-1.8924427-.890105-.8922222 0-1.52186.484228-1.8924428.890105-.7785768.851987-1.1717475 2.152909-1.0510434 3.479242.1115278 1.228218.678343 2.33079 1.5169189 2.949134l.3487008.256937-.0712931.427052c-.2385847 1.421627-1.0679843 2.368201-2.3364362 2.666079-1.9877355.465875-2.9343098 1.557859-3.0818371 3.6063m6.5674329 1.768915c-2.2736137 0-5.5636829-.146821-7.4151851-.470111l-.584462-.102351v-.593638c0-3.095955 1.3708034-4.922752 4.1921736-5.584154.3952883-.092469.9232806-.314113 1.1766886-1.139983-.9663387-.880222-1.5846826-2.186791-1.7187982-3.656417-.1552919-1.714563.3734062-3.418538 1.4145674-4.559227.7948118-.87034 1.8373847-1.349627 2.9350157-1.349627 1.0976309 0 2.1402038.479287 2.9350156 1.349627 1.0418671 1.140689 1.5705652 2.844664 1.4145675 4.559227-.1334098 1.469626-.7524596 2.776195-1.7180924 3.656417.2527021.825164.7806944 1.047514 1.1766886 1.139983 2.8206644.661402 4.1921736 2.488199 4.1921736 5.584154v.593638l-.584462.102351c-1.852208.32329-5.1422773.470111-7.4158909.470111" fill="#e1e8ee"/></g></g></svg>

<?xml version="1.0" encoding="UTF-8"?>
<svg width="553px" height="531px" viewBox="0 0 553 531" version="1.1" xmlns="http://www.w3.org/2000/svg" xmlns:xlink="http://www.w3.org/1999/xlink">
    <!-- Generator: Sketch 52.6 (67491) - http://www.bohemiancoding.com/sketch -->
    <title>Group 31</title>
    <desc>Created with Sketch.</desc>
    <defs>
        <path d="M12,0 L281,0 C287.627417,-1.21743675e-15 293,5.372583 293,12 L293,433 C293,439.627417 287.627417,445 281,445 L12,445 C5.372583,445 8.11624501e-16,439.627417 0,433 L0,12 C-8.11624501e-16,5.372583 5.372583,1.21743675e-15 12,0 Z" id="path-1"></path>
        <filter x="-28.2%" y="-10.4%" width="156.3%" height="137.1%" filterUnits="objectBoundingBox" id="filter-2">
            <feOffset dx="0" dy="36" in="SourceAlpha" result="shadowOffsetOuter1"></feOffset>
            <feGaussianBlur stdDeviation="21.5" in="shadowOffsetOuter1" result="shadowBlurOuter1"></feGaussianBlur>
            <feColorMatrix values="0 0 0 0 0   0 0 0 0 0   0 0 0 0 0  0 0 0 0.201115263 0" type="matrix" in="shadowBlurOuter1"></feColorMatrix>
        </filter>
        <rect id="path-3" x="0" y="0" width="268" height="255" rx="12"></rect>
        <filter x="-31.2%" y="-33.9%" width="162.3%" height="180.4%" filterUnits="objectBoundingBox" id="filter-4">
            <feOffset dx="0" dy="36" in="SourceAlpha" result="shadowOffsetOuter1"></feOffset>
            <feGaussianBlur stdDeviation="21.5" in="shadowOffsetOuter1" result="shadowBlurOuter1"></feGaussianBlur>
            <feColorMatrix values="0 0 0 0 0   0 0 0 0 0   0 0 0 0 0  0 0 0 0.201115263 0" type="matrix" in="shadowBlurOuter1" result="shadowMatrixOuter1"></feColorMatrix>
            <feOffset dx="0" dy="-3" in="SourceAlpha" result="shadowOffsetOuter2"></feOffset>
            <feGaussianBlur stdDeviation="22" in="shadowOffsetOuter2" result="shadowBlurOuter2"></feGaussianBlur>
            <feColorMatrix values="0 0 0 0 0   0 0 0 0 0   0 0 0 0 0  0 0 0 0.0313632246 0" type="matrix" in="shadowBlurOuter2" result="shadowMatrixOuter2"></feColorMatrix>
            <feMerge>
                <feMergeNode in="shadowMatrixOuter1"></feMergeNode>
                <feMergeNode in="shadowMatrixOuter2"></feMergeNode>
            </feMerge>
        </filter>
        <linearGradient x1="7.6875%" y1="-12.1523438%" x2="100%" y2="116.397135%" id="linearGradient-5">
            <stop stop-color="#3BACA5" offset="0%"></stop>
            <stop stop-color="#075655" offset="100%"></stop>
        </linearGradient>
    </defs>
    <g id="Landing-page" stroke="none" stroke-width="1" fill="none" fill-rule="evenodd">
        <g id="1.3--Features" transform="translate(-131.000000, -3926.000000)">
            <g id="Group-31" transform="translate(174.000000, 3933.000000)">
                <g id="mockup-1">
                    <g id="Rectangle-5-Copy">
                        <use fill="black" fill-opacity="1" filter="url(#filter-2)" xlink:href="#path-1"></use>
                        <use fill="#FFFFFF" fill-rule="evenodd" xlink:href="#path-1"></use>
                    </g>
                    <g id="Group" transform="translate(30.000000, 77.000000)">
                        <path d="M4,0 L48,0 C50.209139,-4.05812251e-16 52,1.790861 52,4 L52,48 C52,50.209139 50.209139,52 48,52 L4,52 C1.790861,52 2.705415e-16,50.209139 0,48 L0,4 C-2.705415e-16,1.790861 1.790861,4.05812251e-16 4,0 Z" id="Rectangle-6" fill="#0B7A76"></path>
                        <rect id="Rectangle-7" fill="#E1E8EE" x="64" y="0" width="166.341797" height="8" rx="4"></rect>
                        <path d="M68,18 L193,18 C195.209139,18 197,19.790861 197,22 L197,22 C197,24.209139 195.209139,26 193,26 L68,26 C65.790861,26 64,24.209139 64,22 L64,22 C64,19.790861 65.790861,18 68,18 Z" id="Rectangle-7-Copy" fill="#E1E8EE"></path>
                    </g>
                    <g id="Group-Copy" transform="translate(30.000000, 159.000000)">
                        <path d="M4,0 L48,0 C50.209139,-4.05812251e-16 52,1.790861 52,4 L52,48 C52,50.209139 50.209139,52 48,52 L4,52 C1.790861,52 2.705415e-16,50.209139 0,48 L0,4 C-2.705415e-16,1.790861 1.790861,4.05812251e-16 4,0 Z" id="Rectangle-6" fill="#6C9CDB"></path>
                        <rect id="Rectangle-7" fill="#E1E8EE" x="64" y="0" width="166.341797" height="8" rx="4"></rect>
                        <rect id="Rectangle-7-Copy" fill="#E1E8EE" x="64" y="18" width="111" height="8" rx="4"></rect>
                    </g>
                    <g id="Group-Copy-2" transform="translate(30.000000, 243.000000)">
                        <path d="M4,0 L48,0 C50.209139,-4.05812251e-16 52,1.790861 52,4 L52,48 C52,50.209139 50.209139,52 48,52 L4,52 C1.790861,52 2.705415e-16,50.209139 0,48 L0,4 C-2.705415e-16,1.790861 1.790861,4.05812251e-16 4,0 Z" id="Rectangle-6" fill="#FF647C"></path>
                        <rect id="Rectangle-7" fill="#E1E8EE" x="64" y="0" width="166.341797" height="8" rx="4"></rect>
                        <path d="M68,18 L143,18 C145.209139,18 147,19.790861 147,22 L147,22 C147,24.209139 145.209139,26 143,26 L68,26 C65.790861,26 64,24.209139 64,22 L64,22 C64,19.790861 65.790861,18 68,18 Z" id="Rectangle-7-Copy" fill="#E1E8EE"></path>
                    </g>
                </g>
                <g id="mcokup-2" transform="translate(198.000000, 131.000000)">
                    <g id="Group-4">
                        <g id="Rectangle-5">
                            <use fill="black" fill-opacity="1" filter="url(#filter-4)" xlink:href="#path-3"></use>
                            <use fill="#FFFFFF" fill-rule="evenodd" xlink:href="#path-3"></use>
                        </g>
                    </g>
                    <path d="M96.5,40 L231,40 C233.209139,40 235,41.790861 235,44 L235,44 C235,46.209139 233.209139,48 231,48 L96.5,48 C94.290861,48 92.5,46.209139 92.5,44 L92.5,44 C92.5,41.790861 94.290861,40 96.5,40 Z" id="Rectangle-7" fill="#E1E8EE"></path>
                    <path d="M96.5,58 L173.589928,58 C175.799067,58 177.589928,59.790861 177.589928,62 L177.589928,62 C177.589928,64.209139 175.799067,66 173.589928,66 L96.5,66 C94.290861,66 92.5,64.209139 92.5,62 L92.5,62 C92.5,59.790861 94.290861,58 96.5,58 Z" id="Rectangle-7-Copy" fill="#E1E8EE"></path>
                    <path d="M40,98 L231,98 C233.209139,98 235,99.790861 235,102 L235,102 C235,104.209139 233.209139,106 231,106 L40,106 C37.790861,106 36,104.209139 36,102 L36,102 C36,99.790861 37.790861,98 40,98 Z" id="Rectangle-7-Copy-3" fill="#E1E8EE"></path>
                    <rect id="Rectangle-7-Copy-2" fill="#E1E8EE" x="36" y="116" width="199" height="8" rx="4"></rect>
                    <path d="M40,134 L207,134 C209.209139,134 211,135.790861 211,138 L211,138 C211,140.209139 209.209139,142 207,142 L40,142 C37.790861,142 36,140.209139 36,138 L36,138 C36,135.790861 37.790861,134 40,134 Z" id="Rectangle-7-Copy-5" fill="#E1E8EE"></path>
                    <path d="M67,189 L118,189 C119.104569,189 120,189.895431 120,191 L120,191 C120,192.104569 119.104569,193 118,193 L67,193 C65.8954305,193 65,192.104569 65,191 L65,191 C65,189.895431 65.8954305,189 67,189 Z" id="Rectangle-7-Copy-4" fill="#E1E8EE" opacity="0.570482337"></path>
                    <path d="M66.5,198 L104.5,198 C105.328427,198 106,198.671573 106,199.5 L106,199.5 C106,200.328427 105.328427,201 104.5,201 L66.5,201 C65.6715729,201 65,200.328427 65,199.5 L65,199.5 C65,198.671573 65.6715729,198 66.5,198 Z" id="Rectangle-7-Copy-6" fill="#E1E8EE" opacity="0.570482337"></path>
                    <rect id="Rectangle-8" fill="url(#linearGradient-5)" x="36" y="40" width="41" height="41" rx="6"></rect>
                    <path d="M40.4322142,204.686593 C42.2590109,204.93153 45.0189703,205.043764 46.9996471,205.043764 C48.9803238,205.043764 51.7409891,204.93153 53.5670799,204.686593 C53.4195527,202.638152 52.4736842,201.546168 50.4859487,201.080293 L50.4852429,201.080293 C49.2174968,200.782415 48.3880972,199.835841 48.1495125,198.414214 L48.0775136,197.987162 L48.4269202,197.730225 C49.2647902,197.111881 49.8316054,196.009309 49.9431332,194.781091 C50.0638373,193.454758 49.6706666,192.153836 48.8920898,191.301849 C48.521507,190.895972 47.8925751,190.411744 46.9996471,190.411744 C46.1074249,190.411744 45.4777871,190.895972 45.1072043,191.301849 C44.3286275,192.153836 43.9354568,193.454758 44.0561609,194.781091 C44.1676887,196.009309 44.7345039,197.111881 45.5730798,197.730225 L45.9217806,197.987162 L45.8504875,198.414214 C45.6119028,199.835841 44.7825032,200.782415 43.5140513,201.080293 C41.5263158,201.546168 40.5797415,202.638152 40.4322142,204.686593 M46.9996471,206.455508 C44.7260334,206.455508 41.4359642,206.308687 39.584462,205.985397 L39,205.883046 L39,205.289408 C39,202.193453 40.3708034,200.366656 43.1921736,199.705254 C43.5874619,199.612785 44.1154542,199.391141 44.3688622,198.565271 C43.4025235,197.685049 42.7841796,196.37848 42.650064,194.908854 C42.4947721,193.194291 43.0234702,191.490316 44.0646314,190.349627 C44.8594432,189.479287 45.9020161,189 46.9996471,189 C48.097278,189 49.1398509,189.479287 49.9346627,190.349627 C50.9765298,191.490316 51.5052279,193.194291 51.3492302,194.908854 C51.2158204,196.37848 50.5967706,197.685049 49.6311378,198.565271 C49.8838399,199.390435 50.4118322,199.612785 50.8078264,199.705254 C53.6284908,200.366656 55,202.193453 55,205.289408 L55,205.883046 L54.415538,205.985397 C52.56333,206.308687 49.2732607,206.455508 46.9996471,206.455508" id="Fill-1" fill="#E1E8EE"></path>
                </g>
            </g>
        </g>
    </g>
</svg>
